X: 1
T: This Fall
C: David A. Kaynor October 2016
%D:2016
S: Facebook post 2016-10-24
R: waltz
Z: 2016 John Chambers <jc:trillian.mit.edu>
M: 3/4
L: 1/8
K: Am
|:\
"Am"ABcA ED | E2 A4 | ABcA ED | "Dm"D6 |\
"Dm"DEFD FA | B2 A4 | DEFA Bd |1 "D"dBBA B2 :|2 "E"d3B de |]
"Dm"fAde fa | b2 a4 | "Am"aeeA cd | e3A cA |\
"Dm"dAAc d2 | dAAc d2 | dAAc dB | "E7"e3B de |
"Dm"fAde fa | b2 a2 c'b | "Am"c'aeA cd | e3A cA |\
"Dm"dAAc de | d2 A4 | "E7"dBBA Bc | "Am"A6 |]
